docs/public/static/BIMI.svg

<svg fill="none" height="400" viewBox="0 0 400 400" width="400" xmlns="http://www.w3.org/2000/svg"><path d="m289.621 252.195c2.343-1.344 3.791-3.835 3.799-6.536l.139-43.764c.009-2.7 1.456-5.191 3.798-6.536l23.745-13.632c5.043-2.895 11.33.746 11.33 6.561v79.566c0 2.709-1.449 5.212-3.798 6.561l-89.596 51.428c-2.328 1.336-5.19 1.339-7.52.007l-70.313-40.192c-2.356-1.347-3.81-3.853-3.81-6.568v-40.113c0-.049.052-.079.094-.056.043.024.095-.007.095-.055v-.044c0-.032.017-.062.045-.078l57.905-33.245c.052-.03.031-.11-.029-.11-.033 0-.06-.026-.059-.059l.113-39.335c.017-5.829-6.287-9.486-11.339-6.577l-43.051 24.786c-2.336 1.345-5.212 1.345-7.549 0l-43.179-24.861c-5.043-2.903-11.3394.737-11.3394 6.556v71.092c0 5.808-6.2731 9.449-11.3161 6.569l-23.965-13.687c-2.3618-1.349-3.8176-3.862-3.813-6.582l.2124-124.2526c.0099-5.8089 6.2923-9.4394 11.3303-6.5476l82.0788 47.1132c2.332 1.339 5.199 1.339 7.531 0l82.057-47.1004c5.043-2.8947 11.33.7459 11.33 6.5606v124.2828c0 2.706-1.446 5.206-3.791 6.556l-42.967 24.726c-5.07 2.917-5.052 10.239.032 13.131l23.702 13.484c2.328 1.324 5.183 1.319 7.506-.014zm4.974-111.488c0 5.879 6.412 9.511 11.454 6.487l22.709-13.616c2.28-1.367 3.674-3.83 3.674-6.487v-27.7352c0-5.8789-6.412-9.5109-11.454-6.4877l-22.709 13.6159c-2.279 1.367-3.674 3.83-3.674 6.488z" fill="#007fff" fill-rule="evenodd"/></svg>

<?xml version="1.0" encoding="UTF-8"?><svg xmlns="http://www.w3.org/2000/svg" width="400" height="400" viewBox="0 0 400 400" fill="none" version="1.2" baseProfile="tiny-ps"><title>MUI</title><path fill-rule="evenodd" d="M289.621 252.195C291.964 250.851 293.412 248.36 293.42 245.659L293.559 201.895C293.568 199.195 295.015 196.704 297.357 195.359L321.102 181.727C326.145 178.832 332.432 182.473 332.432 188.288V267.854C332.432 270.563 330.983 273.066 328.634 274.415L239.038 325.843C236.71 327.179 233.848 327.182 231.518 325.85L161.205 285.658C158.849 284.311 157.395 281.805 157.395 279.09V238.977C157.395 238.928 157.447 238.898 157.489 238.921C157.532 238.945 157.584 238.914 157.584 238.866V238.822C157.584 238.79 157.601 238.76 157.629 238.744L215.534 205.499C215.586 205.469 215.565 205.389 215.505 205.389C215.472 205.389 215.445 205.363 215.446 205.33L215.559 165.995C215.576 160.166 209.272 156.509 204.22 159.418L161.169 184.204C158.833 185.549 155.957 185.549 153.62 184.204L110.441 159.343C105.398 156.44 99.1016 160.08 99.1016 165.899V236.991C99.1016 242.799 92.8285 246.44 87.7855 243.56L63.8205 229.873C61.4587 228.524 60.0029 226.011 60.0075 223.291L60.2199 99.0384C60.2298 93.2295 66.5122 89.599 71.5502 92.4908L153.629 139.604C155.961 140.943 158.828 140.943 161.16 139.604L243.217 92.5036C248.26 89.6089 254.547 93.2495 254.547 99.0642V223.347C254.547 226.053 253.101 228.553 250.756 229.903L207.789 254.629C202.719 257.546 202.737 264.868 207.821 267.76L231.523 281.244C233.851 282.568 236.706 282.563 239.029 281.23L289.621 252.195ZM294.595 140.707C294.595 146.586 301.007 150.218 306.049 147.194L328.758 133.578C331.038 132.211 332.432 129.748 332.432 127.091V99.3558C332.432 93.4769 326.02 89.8449 320.978 92.8681L298.269 106.484C295.99 107.851 294.595 110.314 294.595 112.972V140.707Z" fill="#007FFF"></path></svg>
